X: 9
T:The Mooncoin Jig
M:6/8
K:D
|:cBA AEA|AEA Bcd|cBA Ace|dBG Bcd|
cBA AEA|AEA Bcd|Ace gfg|dBG Bcd:|
|:cde efg|faf gfe|cde efg|a2 A cde|
cde efg|afd bge|afd gec|dBG Bcd:|
|:cBA Aaf|ecA Bcd|cBA gfg|dBG Bcd|
cBA Aaa|Agg Aff|efe efg|dBG Bcd:|

